X:1
T:Truck Driving Woman
M:4/4
L:1/4
K:E
 z2 z B| B B A G| B E2 G/2A/2| B3/2 =d/2B/2-A/2 G| B3 B| B B A G| B E E/2E/2 B/2B/2|\
 B BB/2-A/2 G| E G/2F/2 G/2F/2 E/2E/2| A2 A A| =G E3-| E E/2E/2 F E|\
 =G E/2E/2 B B| E4-| E2 B/2B/2 B/2B/2| B2 d2| B A3-| A E/2E/2 F E|\
 =G/2E/2 E/2E/2 B G| E4-| E3 z|

